src/assets/icons/filters/categories/toolbox_stroke.svg

<svg width="48" height="48" viewBox="0 0 48 48" fill="none" xmlns="http://www.w3.org/2000/svg">
<path d="M6.14432 47.9998H5.94272C4.24032 47.9998 2.73792 47.1998 1.53472 45.9998C-0.66848 43.5998 -0.46848 39.7966 1.93472 37.3966L22.5715 16.7886C21.1699 12.1886 22.3715 7.18701 25.7779 3.78542C28.9827 0.585416 33.7907 -0.715384 38.1987 0.383816C39.0003 0.583815 39.6019 1.18382 39.9011 1.98382C40.1027 2.78381 39.9011 3.68461 39.3011 4.28621L33.7907 9.78701L34.5923 13.5886L38.1987 14.2894L43.7091 8.78701C44.3091 8.18701 45.2115 7.98701 46.0131 8.18701C46.8131 8.38701 47.4147 9.08781 47.6147 9.88781C48.7171 14.2878 47.4147 19.091 44.2099 22.291C40.8035 25.6926 35.7939 26.8926 31.1859 25.491L10.4499 46.299C9.34912 47.3998 7.74592 47.9998 6.14272 47.9998H6.14432ZM35.0931 3.08462C32.4883 3.08462 29.8851 4.08622 27.9811 5.98541C26.6007 7.3544 25.6552 9.10051 25.2633 11.0047C24.8713 12.909 25.0503 14.8865 25.7779 16.6894L26.1779 17.5902L4.13952 39.5966C2.93792 40.7966 2.73792 42.7966 3.83872 43.9982C4.44032 44.5982 5.24192 44.9982 6.04352 44.9982C6.94432 44.9982 7.74592 44.699 8.34752 44.099L30.4851 21.9918L31.3875 22.3918C35.0931 23.7918 39.3011 22.9918 42.1059 20.1902C43.1786 19.114 43.9895 17.8055 44.4758 16.3659C44.9622 14.9263 45.111 13.3941 44.9107 11.8878L40.2019 16.5902C39.6019 17.1902 38.6995 17.4894 37.8979 17.2894L33.7907 16.4894C33.2977 16.3886 32.8452 16.1454 32.4891 15.7899C32.133 15.4344 31.8891 14.9822 31.7875 14.4894L30.9875 10.387C30.7859 9.58701 31.0867 8.68621 31.6883 8.08621L36.4963 3.28622C35.8947 3.08462 35.4947 3.08462 35.0931 3.08462V3.08462Z" fill="black"/>
</svg>

<svg width="48" height="48" viewBox="0 0 48 48" fill="none" xmlns="http://www.w3.org/2000/svg"><path d="M6.144 48h-.201c-1.703 0-3.205-.8-4.408-2-2.203-2.4-2.003-6.203.4-8.603l20.637-20.608c-1.402-4.6-.2-9.602 3.206-13.004 3.205-3.2 8.013-4.5 12.42-3.401.802.2 1.404.8 1.703 1.6.202.8 0 1.7-.6 2.302l-5.51 5.501.801 3.802 3.607.7 5.51-5.502c.6-.6 1.502-.8 2.304-.6.8.2 1.402.9 1.602 1.7 1.102 4.4-.2 9.204-3.405 12.404-3.407 3.402-8.416 4.602-13.024 3.2L10.45 46.299c-1.1 1.1-2.704 1.7-4.307 1.7h.001zm28.95-44.915c-2.606 0-5.209 1.001-7.113 2.9a9.872 9.872 0 00-2.203 10.704l.4.901L4.14 39.597c-1.202 1.2-1.402 3.2-.301 4.401.601.6 1.403 1 2.205 1 .9 0 1.702-.299 2.304-.899l22.137-22.107.902.4c3.706 1.4 7.914.6 10.719-2.202a9.91 9.91 0 002.805-8.302L40.2 16.59c-.6.6-1.502.9-2.303.7l-4.107-.8a2.571 2.571 0 01-2.003-2l-.8-4.103c-.202-.8.099-1.7.7-2.3l4.808-4.8c-.601-.202-1.001-.202-1.403-.202z" fill="#000"/></svg>
